public/icons/artifactdatabase.svg

<svg xmlns="http://www.w3.org/2000/svg" fill="currentColor" viewBox="0 0 14 14">
  <g class="artifactdatabase" clip-path="url(#a)">
    <g class="Group">
      <path d="M13.1 3.5c-.1-.2-.3-.3-.5-.4L7.7.8C7.5.7 7.2.6 7 .6c-.2 0-.5 0-.7.1L1.5 3c-.5.2-.9.7-.9 1.2v5.4c0 .5.3.9.8 1.1l4.9 2.4c.2.1.3.1.5.1H7c.3 0 .5 0 .8-.2l4.8-2.4c.5-.2.8-.6.8-1.2V4.3c0-.3-.1-.6-.3-.8Zm-6.5 9-4.8-2.4c-.1 0-.2-.1-.3-.3l1.3-.6c.2-.1.2-.4.1-.5 0-.2-.3-.3-.4-.2L1.4 9V4.3l4.9 2.4c.1 0 .2.1.3.1v5.7Zm0-6.4L1.8 3.7l4.8-2.3v.9c0 .2.2.4.4.4s.4-.2.4-.4v-.9h.1l4.8 2.3-4.9 2.4c-.2.1-.6.1-.8 0Zm6 2.9-1.1-.5c-.2-.1-.4 0-.5.2-.1.2 0 .4.2.5l1.3.6c0 .1-.2.3-.3.3l-4.8 2.4h-.1V6.9c.1 0 .3-.1.4-.1l4.8-2.4h.1V9Z" class="Vector"/>
    </g>
    <g class="Group">
      <path d="M6.9 5.5c-.2 0-.4-.2-.4-.4V3.8c0-.2.2-.4.4-.4s.4.2.4.4v1.3c0 .3-.1.4-.4.4Z" class="Vector"/>
    </g>
    <g class="Group">
      <path d="M4 8.6c-.1 0-.3-.1-.3-.2-.1-.2 0-.4.2-.5l1.5-.7c.2-.1.4 0 .5.2.1.2 0 .4-.2.5l-1.6.6-.1.1Z" class="Vector"/>
    </g>
    <g class="Group">
      <path d="M10 8.6h-.2l-1.4-.8c-.2-.1-.3-.3-.2-.5.1-.2.3-.3.5-.2l1.5.7c.2.1.3.3.2.5-.1.2-.2.3-.4.3Z" class="Vector"/>
    </g>
  </g>
  <defs>
    <clipPath id="a" class="a">
      <path d="M0 0h14v14H0z"/>
    </clipPath>
  </defs>
</svg>

<?xml version="1.0" encoding="utf-8"?>
<!-- Generator: Adobe Illustrator 27.4.0, SVG Export Plug-In . SVG Version: 6.00 Build 0)  -->
<svg version="1.1" id="Layer_1" xmlns="http://www.w3.org/2000/svg" xmlns:xlink="http://www.w3.org/1999/xlink" x="0px" y="0px"
	 viewBox="0 0 14 14" style="enable-background:new 0 0 14 14;" xml:space="preserve" fill="currentColor">
<g>
	<path d="M13.1,3.5c-0.1-0.2-0.3-0.3-0.5-0.4L7.7,0.8C7.5,0.7,7.2,0.6,7,0.6c-0.2,0-0.5,0-0.7,0.1L1.5,3C1,3.2,0.6,3.7,0.6,4.2v5.3
		c0,0,0,0,0,0c0,0,0,0,0,0.1c0,0.5,0.3,0.9,0.8,1.1l4.9,2.4c0.2,0.1,0.3,0.1,0.5,0.1c0.1,0,0.1,0,0.2,0h0c0.3,0,0.5,0,0.8-0.2
		l4.8-2.4c0.5-0.2,0.8-0.6,0.8-1.2c0,0,0-0.1,0-0.1V4.3C13.4,4,13.3,3.7,13.1,3.5z M6.6,12.5l-4.8-2.4c-0.1,0-0.2-0.1-0.3-0.3
		l1.3-0.6C3,9.1,3,8.8,2.9,8.7C2.9,8.5,2.6,8.4,2.5,8.5L1.4,9V4.3c0,0,0,0,0,0l4.9,2.4c0.1,0,0.2,0.1,0.3,0.1V12.5z M6.6,6.1
		L1.8,3.7l4.8-2.3h0v0.9c0,0.2,0.2,0.4,0.4,0.4c0.2,0,0.4-0.2,0.4-0.4V1.4c0,0,0.1,0,0.1,0l4.8,2.3L7.4,6.1C7.2,6.2,6.8,6.2,6.6,6.1
		z M12.6,9l-1.1-0.5c-0.2-0.1-0.4,0-0.5,0.2c-0.1,0.2,0,0.4,0.2,0.5l1.3,0.6c0,0.1-0.2,0.3-0.3,0.3l-4.8,2.4c0,0-0.1,0-0.1,0V6.9
		c0.1,0,0.3-0.1,0.4-0.1l4.8-2.4c0,0,0.1,0,0.1,0V9z"/>
</g>
<g>
	<path d="M6.9,5.5c-0.2,0-0.4-0.2-0.4-0.4V3.8c0-0.2,0.2-0.4,0.4-0.4s0.4,0.2,0.4,0.4v1.3C7.3,5.4,7.2,5.5,6.9,5.5z"/>
</g>
<g>
	<path d="M4,8.6c-0.1,0-0.3-0.1-0.3-0.2c-0.1-0.2,0-0.4,0.2-0.5l1.5-0.7c0.2-0.1,0.4,0,0.5,0.2c0.1,0.2,0,0.4-0.2,0.5L4.1,8.5
		C4.1,8.5,4,8.6,4,8.6z"/>
</g>
<g>
	<path d="M10,8.6c-0.1,0-0.1,0-0.2,0L8.4,7.8C8.2,7.7,8.1,7.5,8.2,7.3c0.1-0.2,0.3-0.3,0.5-0.2l1.5,0.7c0.2,0.1,0.3,0.3,0.2,0.5
		C10.3,8.5,10.2,8.6,10,8.6z"/>
</g>
<g>
	<path d="M7,13.4C7,13.4,7,13.4,7,13.4c-0.1,0-0.1,0-0.2,0C6.9,13.4,6.9,13.4,7,13.4z"/>
</g>
</svg>
